sources/resources/icons/32/misc/info.svg

<svg width="32" height="32" viewBox="0 0 32 32" fill="none" xmlns="http://www.w3.org/2000/svg">
<path d="M17 10C17 10.5523 16.5523 11 16 11C15.4477 11 15 10.5523 15 10C15 9.44772 15.4477 9 16 9C16.5523 9 17 9.44772 17 10Z" fill="white"/>
<path d="M16 14.01C16.4142 14.01 16.75 14.3458 16.75 14.76V22.26C16.75 22.6742 16.4142 23.01 16 23.01C15.5858 23.01 15.25 22.6742 15.25 22.26V14.76C15.25 14.3458 15.5858 14.01 16 14.01Z" fill="white"/>
<path fill-rule="evenodd" clip-rule="evenodd" d="M32 16C32 24.8366 24.8366 32 16 32C7.16344 32 0 24.8366 0 16C0 7.16344 7.16344 0 16 0C24.8366 0 32 7.16344 32 16ZM31 16C31 24.2843 24.2843 31 16 31C7.71573 31 1 24.2843 1 16C1 7.71573 7.71573 1 16 1C24.2843 1 31 7.71573 31 16Z" fill="white"/>
</svg>

<svg viewBox="0 0 32 32" xmlns="http://www.w3.org/2000/svg"><path d="m17 10c0 0.552-0.448 1-1 1s-1-0.448-1-1c0-0.552 0.448-1 1-1s1 0.448 1 1z" fill="#000"/><path d="m16 14c0.414 0 0.75 0.336 0.75 0.75v7.5c0 0.414-0.336 0.75-0.75 0.75s-0.75-0.336-0.75-0.75v-7.5c0-0.414 0.336-0.75 0.75-0.75z" fill="#000"/><path d="m32 16c0 8.84-7.16 16-16 16-8.84 0-16-7.16-16-16 0-8.84 7.16-16 16-16 8.84 0 16 7.16 16 16zm-1 0c0 8.28-6.72 15-15 15-8.28 0-15-6.72-15-15 0-8.28 6.72-15 15-15 8.28 0 15 6.72 15 15z" clip-rule="evenodd" fill="#000" fill-rule="evenodd"/></svg>
